public/images/poses-lg/Pigeon.svg

<svg width="800" height="800" fill="none" xmlns="http://www.w3.org/2000/svg"><path d="M552.481 705.333s70.845-10.881 95.555 5.594c24.71 16.473 6.176 49.417-35.005 53.537-41.183 4.117-127.666-6.178-127.666-6.178s49.806-62.665 67.116-52.953Z" fill="#fff" stroke="#000" stroke-width="5" stroke-miterlimit="10"/><path d="M552.481 705.333s70.845-10.881 95.555 5.594c24.71 16.473 6.176 49.417-35.005 53.537-41.183 4.117-127.666-6.178-127.666-6.178s49.806-62.665 67.116-52.953Z" stroke="#000" stroke-width="5" stroke-miterlimit="10"/><path d="M575.191 501.975s-11.653 26.787 6.007 53.846c12.572 19.267 22.365 41.566 11.693 60.303-7.72 13.555-9.177 20.401-12.352 35.342-3.873 18.202-23.104 47.106-33.398 61.519l-40.297-29.861-15.299-7.203c2.298-8.773 18.532-26.768 22.336-41.6 3.703-14.442 1.451-28.464.364-43.275-2.208-30.243 5.341-47.01 26.204-77.418 7-10.204 13.302-24.008 12.865-37.363" fill="#fff"/><path d="M575.191 501.975s-11.653 26.787 6.007 53.846c12.572 19.267 22.365 41.566 11.693 60.303-7.72 13.555-9.177 20.401-12.352 35.342-3.873 18.202-23.104 47.106-33.398 61.519l-40.297-29.861-15.299-7.203c2.298-8.773 18.532-26.768 22.336-41.6 3.703-14.442 1.451-28.464.364-43.275-2.208-30.243 5.341-47.01 26.204-77.418 7-10.204 13.302-24.008 12.865-37.363" stroke="#000" stroke-width="5" stroke-miterlimit="10"/><path d="M575.191 501.975s-11.653 26.787 6.007 53.846c12.572 19.267 22.365 41.566 11.693 60.303-7.72 13.555-9.177 20.401-12.352 35.342-3.873 18.202-23.104 47.106-33.398 61.519l-40.297-29.861-15.299-7.203c2.298-8.773 18.532-26.768 22.336-41.6 3.703-14.442 1.451-28.464.364-43.275-2.208-30.243 5.341-47.01 26.204-77.418 7-10.204 13.302-24.008 12.865-37.363" stroke="#000" stroke-width="5" stroke-miterlimit="10"/><path d="M527.692 599.213c20.551 32.356 51.474 54.275 61.915 73.328 18.524 33.798 50.22 84.148 63.773 95.369 8.61 7.13 63.632 6.218 62.606 4.789-3.558-4.956-4.533-11.497-20.591-12.354 0 0-12.908.805-20.592-4.117-1.536-.986-10.408-5.513-11.852-6.633-4.398-3.427-7.516-9.783-9.846-14.575-2.618-5.391-5.288-11.583-7.911-16.978-5.356-11.037-9.628-18.083-14.99-29.12-1.443-2.975-15.869-27.695-17.313-30.671l-50.45-79.516" fill="#fff"/><path d="M527.692 599.213c20.551 32.356 51.474 54.275 61.915 73.328 18.524 33.798 50.22 84.148 63.773 95.369 8.61 7.13 63.632 6.218 62.606 4.789-3.558-4.956-4.533-11.497-20.591-12.354 0 0-12.908.805-20.592-4.117-1.536-.986-10.408-5.513-11.852-6.633-4.398-3.427-7.516-9.783-9.846-14.575-2.618-5.391-5.288-11.583-7.911-16.978-5.356-11.037-9.628-18.083-14.99-29.12-1.443-2.975-15.869-27.695-17.313-30.671l-50.45-79.516" stroke="#000" stroke-width="5" stroke-miterlimit="10"/><path d="M527.692 599.213c20.551 32.356 51.474 54.275 61.915 73.328 18.524 33.798 50.22 84.148 63.773 95.369 8.61 7.13 63.632 6.218 62.606 4.789-3.558-4.956-4.533-11.497-20.591-12.354 0 0-12.908.805-20.592-4.117-1.536-.986-10.408-5.513-11.852-6.633-4.398-3.427-7.516-9.783-9.846-14.575-2.618-5.391-5.288-11.583-7.911-16.978-5.356-11.037-9.628-18.083-14.99-29.12-1.443-2.975-15.869-27.695-17.313-30.671l-50.45-79.516" stroke="#000" stroke-width="5" stroke-miterlimit="10"/><path d="M553.633 473.362c-.306 2.217-.302 7.109-.302 7.109Z" fill="#fff"/><path d="M553.633 473.362c-.306 2.217-.302 7.109-.302 7.109" stroke="#000" stroke-width="5" stroke-miterlimit="10"/><path d="M553.633 473.362c-.306 2.217-.302 7.109-.302 7.109M525.067 538.245c-.725 11.249 22.77 24.042 52.903 12.025" stroke="#000" stroke-width="5" stroke-miterlimit="10"/><path d="M549.12 425.468c-2.344-14.987-16.605-49.52-51.785-27.11-22.332 14.229-57.341 32.254-79.327 22.055-21.982-10.203-14.222 46.028 16.631 54.725 30.854 8.699 63.845-4.611 77.311-28.721 13.462-24.11 37.17-20.949 37.17-20.949Z" fill="#100200" stroke="#000" stroke-width="5" stroke-miterlimit="10"/><path d="M550.314 477.47c-4.186-7.18-.826-14.347-2.335-23.362-2.394-14.319 14.895-28.679 31.106-27.961 21.401.951 23.411 77.344 11.038 78.822-7.327.873-20.776-5.141-30.653-17.192-3.179-3.878-9.156-10.307-9.156-10.307Z" fill="#fff" stroke="#000" stroke-width="5" stroke-miterlimit="10"/><path d="M550.314 477.47c-4.186-7.18-.826-14.347-2.335-23.362-2.394-14.319 14.895-28.679 31.106-27.961 21.401.951 23.411 77.344 11.038 78.822-7.327.873-20.776-5.141-30.653-17.192-3.179-3.878-9.156-10.307-9.156-10.307Z" stroke="#000" stroke-width="5" stroke-miterlimit="10"/><path d="M588.145 434.949c-.115 13.408-9.678 37.784-26.558 33.59-18.974-4.716-11.123 6.503-9.599 10.047 1.528 3.545 10.803 10.168 8.928 11.201-1.874 1.038-28.085-8.317-30.887-27.616-2.798-19.3 1.79-29.424 11.743-35.499 9.959-6.073 30.764-7.348 40.838-1.291 10.069 6.054 5.535 9.568 5.535 9.568Z" fill="#100200" stroke="#000" stroke-width="5" stroke-miterlimit="10"/><path d="M497.721 665.625s-42.218 8.913-66.625 38.614c-5.856 7.127-13.719 12.318-22.704 14.397-25.094 5.802-73.628 16.45-85.696 14.941-16.473-2.06-72.069-14.414-125.607 4.117 0 0-20.591 6.177-35.005-6.177-14.413-12.354-14.414-4.117-32.946 8.237-18.532 12.354-57.655 20.59-41.182 30.887l84.425-4.117s113.089.819 131.784 4.117c35.005 6.176 160.612-6.177 181.203-12.355 20.591-6.176 61.775-45.3 61.775-45.3s-50.113-38.17-49.422-47.361Z" fill="#fff" stroke="#000" stroke-width="5" stroke-miterlimit="10"/><path d="M497.721 665.625s-42.218 8.913-66.625 38.614c-5.856 7.127-13.719 12.318-22.704 14.397-25.094 5.802-73.628 16.45-85.696 14.941-16.473-2.06-72.069-14.414-125.607 4.117 0 0-20.591 6.177-35.005-6.177-14.413-12.354-14.414-4.117-32.946 8.237-18.532 12.354-57.655 20.59-41.182 30.887l84.425-4.117s113.089.819 131.784 4.117c35.005 6.176 160.612-6.177 181.203-12.355 20.591-6.176 61.775-45.3 61.775-45.3s-50.113-38.17-49.422-47.361Z" stroke="#000" stroke-width="5" stroke-miterlimit="10"/><path d="M181.037 739.065s-15.516 17.227-4.88 27.489Z" fill="#fff"/><path d="M181.037 739.065s-15.516 17.227-4.88 27.489" stroke="#000" stroke-width="5" stroke-miterlimit="10"/><path d="M181.037 739.065s-15.516 17.227-4.88 27.489M598.618 725.338s-20.256 2.708-41.183 14.414c-7.409 4.147-20.358 2.645-28.826 2.059-1.315-.089 1.372 4.347 0 4.117" stroke="#000" stroke-width="5" stroke-miterlimit="10"/><path d="M537.78 744.663c-4.266-4.76-10.868-6.629-16.349-4.055-3.239 1.518-5.273 4.231-1.662 9.076 7.811 10.484 13.522 27.708 16.982 40.315 1.919 6.991 7.732 4.803 18.61-.506 8.756-4.276-6.233-32.167-17.581-44.83Z" fill="#fff" stroke="#000" stroke-width="5" stroke-miterlimit="10"/><path d="M537.78 744.663c-4.266-4.76-10.868-6.629-16.349-4.055-3.239 1.518-5.273 4.231-1.662 9.076 7.811 10.484 13.522 27.708 16.982 40.315 1.919 6.991 7.732 4.803 18.61-.506 8.756-4.276-6.233-32.167-17.581-44.83Z" stroke="#000" stroke-width="5" stroke-miterlimit="10"/></svg>

<svg width="800" height="800" viewBox="0 0 800 800" fill="none" xmlns="http://www.w3.org/2000/svg">
<path d="M552.481 705.333C552.481 705.333 623.326 694.452 648.036 710.927C672.746 727.4 654.212 760.344 613.031 764.464C571.848 768.581 485.365 758.286 485.365 758.286C485.365 758.286 535.171 695.621 552.481 705.333Z" fill="white" stroke="black" stroke-width="5" stroke-miterlimit="10"/>
<path d="M552.481 705.333C552.481 705.333 623.326 694.452 648.036 710.927C672.746 727.4 654.212 760.344 613.031 764.464C571.848 768.581 485.365 758.286 485.365 758.286C485.365 758.286 535.171 695.621 552.481 705.333Z" stroke="black" stroke-width="5" stroke-miterlimit="10"/>
<path d="M575.191 501.975C575.191 501.975 563.538 528.762 581.198 555.821C593.77 575.088 603.563 597.387 592.891 616.124C585.171 629.679 583.714 636.525 580.539 651.466C576.666 669.668 557.435 698.572 547.141 712.985L506.844 683.124L491.545 675.921C493.843 667.148 510.077 649.153 513.881 634.321C517.584 619.879 515.332 605.857 514.245 591.046C512.037 560.803 519.586 544.036 540.449 513.628C547.449 503.424 553.751 489.62 553.314 476.265" fill="white"/>
<path d="M575.191 501.975C575.191 501.975 563.538 528.762 581.198 555.821C593.77 575.088 603.563 597.387 592.891 616.124C585.171 629.679 583.714 636.525 580.539 651.466C576.666 669.668 557.435 698.572 547.141 712.985L506.844 683.124L491.545 675.921C493.843 667.148 510.077 649.153 513.881 634.321C517.584 619.879 515.332 605.857 514.245 591.046C512.037 560.803 519.586 544.036 540.449 513.628C547.449 503.424 553.751 489.62 553.314 476.265" stroke="black" stroke-width="5" stroke-miterlimit="10"/>
<path d="M575.191 501.975C575.191 501.975 563.538 528.762 581.198 555.821C593.77 575.088 603.563 597.387 592.891 616.124C585.171 629.679 583.714 636.525 580.539 651.466C576.666 669.668 557.435 698.572 547.141 712.985L506.844 683.124L491.545 675.921C493.843 667.148 510.077 649.153 513.881 634.321C517.584 619.879 515.332 605.857 514.245 591.046C512.037 560.803 519.586 544.036 540.449 513.628C547.449 503.424 553.751 489.62 553.314 476.265" stroke="black" stroke-width="5" stroke-miterlimit="10"/>
<path d="M527.692 599.213C548.243 631.569 579.166 653.488 589.607 672.541C608.131 706.339 639.827 756.689 653.38 767.91C661.99 775.04 717.012 774.128 715.986 772.699C712.428 767.743 711.453 761.202 695.395 760.345C695.395 760.345 682.487 761.15 674.803 756.228C673.267 755.242 664.395 750.715 662.951 749.595C658.553 746.168 655.435 739.812 653.105 735.02C650.487 729.629 647.817 723.437 645.194 718.042C639.838 707.005 635.566 699.959 630.204 688.922C628.761 685.947 614.335 661.227 612.891 658.251L562.441 578.735" fill="white"/>
<path d="M527.692 599.213C548.243 631.569 579.166 653.488 589.607 672.541C608.131 706.339 639.827 756.689 653.38 767.91C661.99 775.04 717.012 774.128 715.986 772.699C712.428 767.743 711.453 761.202 695.395 760.345C695.395 760.345 682.487 761.15 674.803 756.228C673.267 755.242 664.395 750.715 662.951 749.595C658.553 746.168 655.435 739.812 653.105 735.02C650.487 729.629 647.817 723.437 645.194 718.042C639.838 707.005 635.566 699.959 630.204 688.922C628.761 685.947 614.335 661.227 612.891 658.251L562.441 578.735" stroke="black" stroke-width="5" stroke-miterlimit="10"/>
<path d="M527.692 599.213C548.243 631.569 579.166 653.488 589.607 672.541C608.131 706.339 639.827 756.689 653.38 767.91C661.99 775.04 717.012 774.128 715.986 772.699C712.428 767.743 711.453 761.202 695.395 760.345C695.395 760.345 682.487 761.15 674.803 756.228C673.267 755.242 664.395 750.715 662.951 749.595C658.553 746.168 655.435 739.812 653.105 735.02C650.487 729.629 647.817 723.437 645.194 718.042C639.838 707.005 635.566 699.959 630.204 688.922C628.761 685.947 614.335 661.227 612.891 658.251L562.441 578.735" stroke="black" stroke-width="5" stroke-miterlimit="10"/>
<path d="M553.633 473.362C553.327 475.579 553.331 480.471 553.331 480.471Z" fill="white"/>
<path d="M553.633 473.362C553.327 475.579 553.331 480.471 553.331 480.471" stroke="black" stroke-width="5" stroke-miterlimit="10"/>
<path d="M553.633 473.362C553.327 475.579 553.331 480.471 553.331 480.471" stroke="black" stroke-width="5" stroke-miterlimit="10"/>
<path d="M525.067 538.245C524.342 549.494 547.837 562.287 577.97 550.27" stroke="black" stroke-width="5" stroke-miterlimit="10"/>
<path d="M549.12 425.468C546.776 410.481 532.515 375.948 497.335 398.358C475.003 412.587 439.994 430.612 418.008 420.413C396.026 410.21 403.786 466.441 434.639 475.138C465.493 483.837 498.484 470.527 511.95 446.417C525.412 422.307 549.12 425.468 549.12 425.468Z" fill="#100200" stroke="black" stroke-width="5" stroke-miterlimit="10"/>
<path d="M550.314 477.47C546.128 470.29 549.488 463.123 547.979 454.108C545.585 439.789 562.874 425.429 579.085 426.147C600.486 427.098 602.496 503.491 590.123 504.969C582.796 505.842 569.347 499.828 559.47 487.777C556.291 483.899 550.314 477.47 550.314 477.47Z" fill="white" stroke="black" stroke-width="5" stroke-miterlimit="10"/>
<path d="M550.314 477.47C546.128 470.29 549.488 463.123 547.979 454.108C545.585 439.789 562.874 425.429 579.085 426.147C600.486 427.098 602.496 503.491 590.123 504.969C582.796 505.842 569.347 499.828 559.47 487.777C556.291 483.899 550.314 477.47 550.314 477.47Z" stroke="black" stroke-width="5" stroke-miterlimit="10"/>
<path d="M588.145 434.949C588.03 448.357 578.467 472.733 561.587 468.539C542.613 463.823 550.464 475.042 551.988 478.586C553.516 482.131 562.791 488.754 560.916 489.787C559.042 490.825 532.831 481.47 530.029 462.171C527.231 442.871 531.819 432.747 541.772 426.672C551.731 420.599 572.536 419.324 582.61 425.381C592.679 431.435 588.145 434.949 588.145 434.949Z" fill="#100200" stroke="black" stroke-width="5" stroke-miterlimit="10"/>
<path d="M497.721 665.625C497.721 665.625 455.503 674.538 431.096 704.239C425.24 711.366 417.377 716.557 408.392 718.636C383.298 724.438 334.764 735.086 322.696 733.577C306.223 731.517 250.627 719.163 197.089 737.694C197.089 737.694 176.498 743.871 162.084 731.517C147.671 719.163 147.67 727.4 129.138 739.754C110.606 752.108 71.4832 760.344 87.9563 770.641L172.381 766.524C172.381 766.524 285.47 767.343 304.165 770.641C339.17 776.817 464.777 764.464 485.368 758.286C505.959 752.11 547.143 712.986 547.143 712.986C547.143 712.986 497.03 674.816 497.721 665.625Z" fill="white" stroke="black" stroke-width="5" stroke-miterlimit="10"/>
<path d="M497.721 665.625C497.721 665.625 455.503 674.538 431.096 704.239C425.24 711.366 417.377 716.557 408.392 718.636C383.298 724.438 334.764 735.086 322.696 733.577C306.223 731.517 250.627 719.163 197.089 737.694C197.089 737.694 176.498 743.871 162.084 731.517C147.671 719.163 147.67 727.4 129.138 739.754C110.606 752.108 71.4832 760.344 87.9563 770.641L172.381 766.524C172.381 766.524 285.47 767.343 304.165 770.641C339.17 776.817 464.777 764.464 485.368 758.286C505.959 752.11 547.143 712.986 547.143 712.986C547.143 712.986 497.03 674.816 497.721 665.625Z" stroke="black" stroke-width="5" stroke-miterlimit="10"/>
<path d="M181.037 739.065C181.037 739.065 165.521 756.292 176.157 766.554Z" fill="white"/>
<path d="M181.037 739.065C181.037 739.065 165.521 756.292 176.157 766.554" stroke="black" stroke-width="5" stroke-miterlimit="10"/>
<path d="M181.037 739.065C181.037 739.065 165.521 756.292 176.157 766.554" stroke="black" stroke-width="5" stroke-miterlimit="10"/>
<path d="M598.618 725.338C598.618 725.338 578.362 728.046 557.435 739.752C550.026 743.899 537.077 742.397 528.609 741.811C527.294 741.722 529.981 746.158 528.609 745.928" stroke="black" stroke-width="5" stroke-miterlimit="10"/>
<path d="M537.78 744.663C533.514 739.903 526.912 738.034 521.431 740.608C518.192 742.126 516.158 744.839 519.769 749.684C527.58 760.168 533.291 777.392 536.751 789.999C538.67 796.99 544.483 794.802 555.361 789.493C564.117 785.217 549.128 757.326 537.78 744.663Z" fill="white" stroke="black" stroke-width="5" stroke-miterlimit="10"/>
<path d="M537.78 744.663C533.514 739.903 526.912 738.034 521.431 740.608C518.192 742.126 516.158 744.839 519.769 749.684C527.58 760.168 533.291 777.392 536.751 789.999C538.67 796.99 544.483 794.802 555.361 789.493C564.117 785.217 549.128 757.326 537.78 744.663Z" stroke="black" stroke-width="5" stroke-miterlimit="10"/>
</svg>
